germany/municipalities/03459016.svg

<?xml version="1.0" encoding="UTF-8" standalone="no"?>
<!-- Created with Inkscape (http://www.inkscape.org/) -->
<svg
   xmlns:svg="http://www.w3.org/2000/svg"
   xmlns="http://www.w3.org/2000/svg"
   version="1.0"
   width="630.87"
   height="763.64655"
   id="svg2503">
  <defs
     id="defs2506" />
  <g
     id="g4969">
    <path
       d="M 625.99151,4.8784699 L 625.99151,441.06286 C 625.99151,616.89496 486.78728,758.76808 315.12287,758.76808 C 144.0827,758.76808 4.8784699,616.89496 4.8784699,441.06286 L 4.8784699,4.8784699 L 625.99151,4.8784699"
       id="path523"
       style="opacity:0.98000004;fill:#000000;fill-opacity:1;fill-rule:evenodd;stroke:#000000;stroke-width:9.75693989;marker-start:none;stroke-miterlimit:4;stroke-dasharray:none;stroke-opacity:1" />
    <rect
       width="308.88104"
       height="352.8703"
       x="7.141573"
       y="8.0394869"
       id="rect4098"
       style="opacity:1;fill:#da121a;fill-opacity:1;fill-rule:evenodd;stroke:#000000;stroke-width:4.5;stroke-linecap:round;stroke-linejoin:miter;stroke-miterlimit:4;stroke-dasharray:none;stroke-opacity:1" />
    <g
       transform="translate(-0.5087315,194.02551)"
       id="g4070">
      <path
         d="M 304.0996,53.085995 A 98.497673,99.453957 0 1 1 107.10426,53.085995 A 98.497673,99.453957 0 1 1 304.0996,53.085995 z"
         transform="translate(-22.950913,-17.213185)"
         id="path4018"
         style="opacity:1;fill:#000000;fill-opacity:1;fill-rule:evenodd;stroke:#000000;stroke-width:10;stroke-linecap:round;stroke-linejoin:miter;stroke-miterlimit:4;stroke-dasharray:none;stroke-opacity:1" />
      <path
         d="M 304.0996,53.085995 A 98.497673,99.453957 0 1 1 107.10426,53.085995 A 98.497673,99.453957 0 1 1 304.0996,53.085995 z"
         transform="matrix(0.6721108,0,0,0.6752636,41.906381,1.2151297)"
         id="path4020"
         style="fill:#da121a;fill-opacity:1;fill-rule:evenodd;stroke:none;stroke-width:10;stroke-linecap:round;stroke-linejoin:miter;stroke-miterlimit:4;stroke-dasharray:none;stroke-opacity:1" />
      <path
         d="M 110.24465,7.8859554 C 251.11621,8.6269929 251.11621,8.6269929 251.11621,8.6269929"
         id="path4022"
         style="fill:none;fill-rule:evenodd;stroke:#000000;stroke-width:8.69400024;stroke-linecap:butt;stroke-linejoin:miter;stroke-miterlimit:4;stroke-dasharray:none;stroke-opacity:1" />
      <path
         d="M 153.33383,99.498876 C 152.30757,-26.554444 152.30757,-26.554444 152.30757,-26.554444"
         id="path4024"
         style="fill:none;fill-rule:evenodd;stroke:#000000;stroke-width:8.63408184;stroke-linecap:butt;stroke-linejoin:miter;stroke-miterlimit:4;stroke-dasharray:none;stroke-opacity:1" />
      <path
         d="M 110.02258,63.630753 C 250.89414,64.371791 250.89414,64.371791 250.89414,64.371791"
         id="path4026"
         style="fill:none;fill-rule:evenodd;stroke:#000000;stroke-width:8.69400024;stroke-linecap:butt;stroke-linejoin:miter;stroke-miterlimit:4;stroke-dasharray:none;stroke-opacity:1" />
      <path
         d="M 210.81063,98.82268 C 209.78437,-27.230642 209.78437,-27.230642 209.78437,-27.230642"
         id="path4028"
         style="fill:none;fill-rule:evenodd;stroke:#000000;stroke-width:8.63408184;stroke-linecap:butt;stroke-linejoin:miter;stroke-miterlimit:4;stroke-dasharray:none;stroke-opacity:1" />
      <path
         d="M 181.17139,60.144119 C 181.21343,9.4193302 181.21343,9.4193302 181.21343,9.4193302"
         id="path4030"
         style="fill:none;fill-rule:evenodd;stroke:#000000;stroke-width:19.34825897;stroke-linecap:butt;stroke-linejoin:miter;stroke-miterlimit:4;stroke-dasharray:none;stroke-opacity:1" />
      <path
         d="M 207.93579,35.14084 C 157.21101,35.0988 157.21101,35.0988 157.21101,35.0988"
         id="path4032"
         style="fill:none;fill-rule:evenodd;stroke:#000000;stroke-width:19.34825897;stroke-linecap:butt;stroke-linejoin:miter;stroke-miterlimit:4;stroke-dasharray:none;stroke-opacity:1" />
    </g>
    <rect
       width="308.88104"
       height="352.8703"
       x="316.16266"
       y="7.8994417"
       id="rect4100"
       style="opacity:0.0962963;fill:#000000;fill-opacity:1;fill-rule:evenodd;stroke:#000000;stroke-width:4.5;stroke-linecap:round;stroke-linejoin:miter;stroke-miterlimit:4;stroke-dasharray:none;stroke-opacity:1" />
    <path
       d="M 318.11036,357.38664 C 332.43777,358.63751 334.09851,358.92729 355.44878,358.68754 C 396.991,348.96499 430.04616,332.82063 450.66181,316.75717 C 511.59119,269.28176 495.24438,206.82199 517.18,188.45442 C 542.66349,167.10764 558.03406,191.5751 624.47077,135.77609 C 624.77666,136.00342 625.23638,6.4332299 624.96595,6.0670099 C 624.84155,6.2429699 583.1287,6.3741399 556.31855,6.0829799 C 556.42111,6.0747499 554.50663,46.44962 539.97934,62.2471 C 525.47076,77.07722 467.17129,77.75018 431.93795,115.19611 C 395.13259,154.31279 387.36265,224.20192 380.0456,230.14638 C 369.0671,241.1169 346.14547,240.15977 316.73241,255.52374 C 316.30674,255.61889 318.06458,357.46567 318.11036,357.38664 z"
       id="path7892"
       style="opacity:1;fill:#e7e7e7;fill-opacity:1;fill-rule:nonzero;stroke:none;display:inline" />
    <path
       d="M 108.72999,673.8615 C 187.80452,605.5801 182.10897,541.6118 211.48277,515.80606 C 236.96626,494.45927 247.19519,510.81235 313.6319,455.01335 C 313.93779,455.24068 313.90233,363.05943 313.6319,362.69321 C 313.5075,362.86917 263.23131,362.80228 236.42116,362.51112 C 236.52372,362.50289 240.01882,369.74407 225.49153,385.54155 C 210.98295,400.37167 161.47406,407.13041 126.24072,444.57634 C 89.435358,483.69302 76.864072,549.31284 62.853006,562.90759 C 50.52211,574.55431 51.499438,574.60153 41.464078,583.55158 C 41.25868,583.59749 54.112377,611.28863 71.407358,632.60227 C 89.670264,655.10873 108.49183,674.06715 108.72999,673.8615 z"
       id="path4949"
       style="opacity:1;fill:#e7e7e7;fill-opacity:1;fill-rule:nonzero;stroke:none;display:inline" />
    <path
       d="M 315.47574,756.43652 C 437.74463,754.9827 516.51286,690.14713 562.45997,630.52355 C 602.99221,568.59275 628.73414,518.23151 623.43233,362.06691 C 623.53505,362.05868 315.74375,360.54911 315.75473,360.79404 C 315.78446,360.74781 315.16061,756.44027 315.47574,756.43652 z"
       id="path4951"
       style="opacity:1;fill:#da121a;fill-opacity:1;fill-rule:nonzero;stroke:#000000;stroke-width:4.5;stroke-miterlimit:4;stroke-dasharray:none;stroke-opacity:1;display:inline" />
    <path
       d="M 304.0996,53.085995 A 98.497673,99.453957 0 1 1 107.10426,53.085995 A 98.497673,99.453957 0 1 1 304.0996,53.085995 z"
       transform="translate(242.38844,441.70411)"
       id="path4082"
       style="fill:#000000;fill-opacity:1;fill-rule:evenodd;stroke:#000000;stroke-width:10;stroke-linecap:round;stroke-linejoin:miter;stroke-miterlimit:4;stroke-dasharray:none;stroke-opacity:1" />
    <path
       d="M 304.0996,53.085995 A 98.497673,99.453957 0 1 1 107.10426,53.085995 A 98.497673,99.453957 0 1 1 304.0996,53.085995 z"
       transform="matrix(0.6721108,0,0,0.6752636,307.24573,460.13243)"
       id="path4084"
       style="fill:#da121a;fill-opacity:1;fill-rule:evenodd;stroke:none;stroke-width:10;stroke-linecap:round;stroke-linejoin:miter;stroke-miterlimit:4;stroke-dasharray:none;stroke-opacity:1" />
    <path
       d="M 375.584,466.80326 C 516.45556,467.54429 516.45556,467.54429 516.45556,467.54429"
       id="path4086"
       style="fill:none;fill-rule:evenodd;stroke:#000000;stroke-width:8.69400024;stroke-linecap:butt;stroke-linejoin:miter;stroke-miterlimit:4;stroke-dasharray:none;stroke-opacity:1" />
    <path
       d="M 418.67318,558.41618 C 417.64692,432.36286 417.64692,432.36286 417.64692,432.36286"
       id="path4088"
       style="fill:none;fill-rule:evenodd;stroke:#000000;stroke-width:8.63408184;stroke-linecap:butt;stroke-linejoin:miter;stroke-miterlimit:4;stroke-dasharray:none;stroke-opacity:1" />
    <path
       d="M 375.36193,522.54805 C 516.23349,523.28909 516.23349,523.28909 516.23349,523.28909"
       id="path4090"
       style="fill:none;fill-rule:evenodd;stroke:#000000;stroke-width:8.69400024;stroke-linecap:butt;stroke-linejoin:miter;stroke-miterlimit:4;stroke-dasharray:none;stroke-opacity:1" />
    <path
       d="M 476.14998,557.73998 C 475.12372,431.68666 475.12372,431.68666 475.12372,431.68666"
       id="path4092"
       style="fill:none;fill-rule:evenodd;stroke:#000000;stroke-width:8.63408184;stroke-linecap:butt;stroke-linejoin:miter;stroke-miterlimit:4;stroke-dasharray:none;stroke-opacity:1" />
    <path
       d="M 446.51074,519.06142 C 446.55278,468.33663 446.55278,468.33663 446.55278,468.33663"
       id="path4094"
       style="fill:none;fill-rule:evenodd;stroke:#000000;stroke-width:19.34825897;stroke-linecap:butt;stroke-linejoin:miter;stroke-miterlimit:4;stroke-dasharray:none;stroke-opacity:1" />
    <path
       d="M 473.27514,494.05814 C 422.55036,494.0161 422.55036,494.0161 422.55036,494.0161"
       id="path4096"
       style="fill:none;fill-rule:evenodd;stroke:#000000;stroke-width:19.34825897;stroke-linecap:butt;stroke-linejoin:miter;stroke-miterlimit:4;stroke-dasharray:none;stroke-opacity:1" />
  </g>
</svg>

<svg xmlns="http://www.w3.org/2000/svg" version="1.0" width="630.87" height="763.647"><path d="M625.992 4.878v436.185c0 175.832-139.205 317.705-310.87 317.705-171.04 0-310.244-141.873-310.244-317.705V4.878h621.114" style="opacity:.98000004;fill:#000;fill-opacity:1;fill-rule:evenodd;stroke:#000;stroke-width:9.75693989;marker-start:none;stroke-miterlimit:4;stroke-dasharray:none;stroke-opacity:1"/><path style="opacity:1;fill:#da121a;fill-opacity:1;fill-rule:evenodd;stroke:#000;stroke-width:4.5;stroke-linecap:round;stroke-linejoin:miter;stroke-miterlimit:4;stroke-dasharray:none;stroke-opacity:1" d="M7.142 8.039h308.881v352.87H7.142z"/><path d="M304.1 53.086a98.498 99.454 0 1 1-196.996 0 98.498 99.454 0 1 1 196.996 0z" transform="translate(-23.46 176.812)" style="opacity:1;fill:#000;fill-opacity:1;fill-rule:evenodd;stroke:#000;stroke-width:10;stroke-linecap:round;stroke-linejoin:miter;stroke-miterlimit:4;stroke-dasharray:none;stroke-opacity:1"/><path d="M304.1 53.086a98.498 99.454 0 1 1-196.996 0 98.498 99.454 0 1 1 196.996 0z" transform="matrix(.67211 0 0 .67526 41.398 195.24)" style="fill:#da121a;fill-opacity:1;fill-rule:evenodd;stroke:none;stroke-width:10;stroke-linecap:round;stroke-linejoin:miter;stroke-miterlimit:4;stroke-dasharray:none;stroke-opacity:1"/><path d="m110.245 7.886 140.871.741" style="fill:none;fill-rule:evenodd;stroke:#000;stroke-width:8.69400024;stroke-linecap:butt;stroke-linejoin:miter;stroke-miterlimit:4;stroke-dasharray:none;stroke-opacity:1" transform="translate(-.509 194.026)"/><path d="m153.334 99.499-1.026-126.053" style="fill:none;fill-rule:evenodd;stroke:#000;stroke-width:8.63408184;stroke-linecap:butt;stroke-linejoin:miter;stroke-miterlimit:4;stroke-dasharray:none;stroke-opacity:1" transform="translate(-.509 194.026)"/><path d="m110.023 63.63 140.871.742" style="fill:none;fill-rule:evenodd;stroke:#000;stroke-width:8.69400024;stroke-linecap:butt;stroke-linejoin:miter;stroke-miterlimit:4;stroke-dasharray:none;stroke-opacity:1" transform="translate(-.509 194.026)"/><path d="m210.81 98.823-1.026-126.054" style="fill:none;fill-rule:evenodd;stroke:#000;stroke-width:8.63408184;stroke-linecap:butt;stroke-linejoin:miter;stroke-miterlimit:4;stroke-dasharray:none;stroke-opacity:1" transform="translate(-.509 194.026)"/><path d="m181.171 60.144.042-50.725M207.936 35.14 157.21 35.1" style="fill:none;fill-rule:evenodd;stroke:#000;stroke-width:19.34825897;stroke-linecap:butt;stroke-linejoin:miter;stroke-miterlimit:4;stroke-dasharray:none;stroke-opacity:1" transform="translate(-.509 194.026)"/><path style="opacity:.0962963;fill:#000;fill-opacity:1;fill-rule:evenodd;stroke:#000;stroke-width:4.5;stroke-linecap:round;stroke-linejoin:miter;stroke-miterlimit:4;stroke-dasharray:none;stroke-opacity:1" d="M316.163 7.899h308.881v352.87H316.163z"/><path d="M318.11 357.387c14.328 1.25 15.989 1.54 37.339 1.3 41.542-9.722 74.597-25.866 95.213-41.93 60.93-47.475 44.582-109.935 66.518-128.303 25.483-21.346 40.854 3.121 107.29-52.678.307.227.766-129.343.496-129.709-.124.176-41.837.307-68.647.016.102-.008-1.812 40.367-16.34 56.164-14.508 14.83-72.808 15.503-108.041 52.95-36.805 39.116-44.575 109.005-51.892 114.95-10.979 10.97-33.9 10.013-63.314 25.377-.425.095 1.333 101.942 1.378 101.863zM108.73 673.861c79.075-68.28 73.379-132.25 102.753-158.055 25.483-21.347 35.712-4.994 102.149-60.793.306.228.27-91.954 0-92.32-.125.176-50.4.11-77.21-.182.102-.008 3.597 7.233-10.93 23.03-14.51 14.83-64.018 21.59-99.251 59.035-36.806 39.117-49.377 104.737-63.388 118.332-12.33 11.646-11.354 11.694-21.389 20.644-.205.045 12.648 27.737 29.943 49.05 18.263 22.507 37.085 41.465 37.323 41.26z" style="opacity:1;fill:#e7e7e7;fill-opacity:1;fill-rule:nonzero;stroke:none;display:inline"/><path d="M315.476 756.437c122.269-1.454 201.037-66.29 246.984-125.913 40.532-61.931 66.274-112.292 60.972-268.457.103-.008-307.688-1.518-307.677-1.273.03-.046-.594 395.646-.28 395.643z" style="opacity:1;fill:#da121a;fill-opacity:1;fill-rule:nonzero;stroke:#000;stroke-width:4.5;stroke-miterlimit:4;stroke-dasharray:none;stroke-opacity:1;display:inline"/><path d="M304.1 53.086a98.498 99.454 0 1 1-196.996 0 98.498 99.454 0 1 1 196.996 0z" transform="translate(242.388 441.704)" style="fill:#000;fill-opacity:1;fill-rule:evenodd;stroke:#000;stroke-width:10;stroke-linecap:round;stroke-linejoin:miter;stroke-miterlimit:4;stroke-dasharray:none;stroke-opacity:1"/><path d="M304.1 53.086a98.498 99.454 0 1 1-196.996 0 98.498 99.454 0 1 1 196.996 0z" transform="matrix(.67211 0 0 .67526 307.246 460.132)" style="fill:#da121a;fill-opacity:1;fill-rule:evenodd;stroke:none;stroke-width:10;stroke-linecap:round;stroke-linejoin:miter;stroke-miterlimit:4;stroke-dasharray:none;stroke-opacity:1"/><path d="m375.584 466.803 140.872.741" style="fill:none;fill-rule:evenodd;stroke:#000;stroke-width:8.69400024;stroke-linecap:butt;stroke-linejoin:miter;stroke-miterlimit:4;stroke-dasharray:none;stroke-opacity:1"/><path d="m418.673 558.416-1.026-126.053" style="fill:none;fill-rule:evenodd;stroke:#000;stroke-width:8.63408184;stroke-linecap:butt;stroke-linejoin:miter;stroke-miterlimit:4;stroke-dasharray:none;stroke-opacity:1"/><path d="m375.362 522.548 140.871.741" style="fill:none;fill-rule:evenodd;stroke:#000;stroke-width:8.69400024;stroke-linecap:butt;stroke-linejoin:miter;stroke-miterlimit:4;stroke-dasharray:none;stroke-opacity:1"/><path d="m476.15 557.74-1.026-126.053" style="fill:none;fill-rule:evenodd;stroke:#000;stroke-width:8.63408184;stroke-linecap:butt;stroke-linejoin:miter;stroke-miterlimit:4;stroke-dasharray:none;stroke-opacity:1"/><path d="m446.51 519.061.043-50.724M473.275 494.058l-50.725-.042" style="fill:none;fill-rule:evenodd;stroke:#000;stroke-width:19.34825897;stroke-linecap:butt;stroke-linejoin:miter;stroke-miterlimit:4;stroke-dasharray:none;stroke-opacity:1"/></svg>
